src/assets/skills/hockeyapp.svg

<svg height="100pt" viewBox="0 0 100 100" width="100pt" xmlns="http://www.w3.org/2000/svg"><path d="m0 0h100v100h-100z" fill="#009ee1"/><path d="m86.614 36.431c1.051.717 1.179 3.123.321 4.478-.637.922-1.434 1.722-2.353 2.362-1.663 1.317-3.5 2.399-5.459 3.215-1.721.907-3.519 1.66-5.374 2.247-3.264 1.133-6.613 2.003-10.015 2.604-7.978 1.437-16.131 1.616-24.165.532-4.85-.619-9.62-1.755-14.228-3.391-.299-.105-.585-.255-.88-.382-3.602-1.258-6.993-2.908-9.909-5.415-1.337-1.139-2.226-2.498-2.023-4.398.027-.648.297-1.262.756-1.72 1.065-.998 2.397-1.482 3.77-1.878 3.835-1.104 7.793-1.46 11.752-1.706 11.466-.713 22.941-.665 34.417-.383 3.496.083 6.997.198 10.476.585 2.974.28 5.928.743 8.845 1.385 1.459.369 2.837 1.001 4.069 1.865zm-24.604 8.634c4.284-.836 8.449-1.992 12.293-4.126.466-.4.959-.787 1.399-1.196.378-.339.321-.646-.093-.923-.652-.414-1.37-.712-2.124-.88-2.628-.616-5.312-.96-8.01-1.025-11.009-.555-22.04-.502-33.044.158-2.357.176-4.733.374-7.002 1.219-1.786.681-1.812.884-.44 2.15.04.043.077.089.11.137 2.197 1.482 4.644 2.557 7.222 3.171 2.221.523 4.385 1.254 6.62 1.605 2.45.448 4.933.699 7.424.753 3.272-.009 6.545.079 9.817-.194 1.956-.177 3.902-.46 5.828-.849zm-11.924 14.937c-8.256 0-16.274-1.28-23.993-4.306-2.819-1.109-5.537-2.428-7.86-4.42-1.205-1.034-2.15-2.2-1.975-3.959.11-1.1.304-1.258 1.188-.669 2.467 1.583 5.128 2.841 7.917 3.743 4.434 1.511 8.998 2.606 13.635 3.273 1.878.281 3.76.519 5.638.739 1.443.167 2.925 0 4.399.039 3.013.123 6.032-.002 9.025-.374 8.062-1.016 15.931-2.81 23.161-6.738.493-.268.977-.563 1.456-.853.722-.44.968-.343 1.082.484.221 1.097-.08 2.234-.813 3.079-.854.946-1.835 1.767-2.917 2.441-6.513 4.134-13.784 5.951-21.309 6.993-2.862.385-5.747.562-8.634.528zm31.822-5.041c-.015.566-.064 1.13-.15 1.689-.717 1.808-2.208 2.934-3.743 3.91-1.429.94-2.941 1.749-4.517 2.415-3.893 1.632-7.951 2.837-12.104 3.593-2.85.511-5.714.735-8.599.95-2.625.134-5.257.096-7.877-.114-4.414-.286-8.778-1.095-13.002-2.41-2.386-.685-4.708-1.577-6.94-2.666-2.384-1.191-4.724-2.485-6.342-4.71-.88-1.21-.647-2.582-.44-3.901.083-.537.453-.308.721-.097 1.156.878 2.392 1.647 3.69 2.296 2.418 1.181 4.917 2.19 7.477 3.017 2.459.844 4.997 1.223 7.477 1.847 1.5.379 3.088.405 4.632.625 3.026.435 6.074.321 9.118.374 3.422.008 6.838-.3 10.204-.92 3.496-.566 6.933-1.449 10.27-2.639 1.48-.514 2.929-1.118 4.336-1.807.313-.167 3.682-1.821 4.861-2.806.554-.462.747-.291.84.299.052.347.061.703.088 1.055z" fill="#fff"/></svg>

<?xml version="1.0" encoding="UTF-8" standalone="no"?><!-- Generator: Gravit.io --><svg xmlns="http://www.w3.org/2000/svg" xmlns:xlink="http://www.w3.org/1999/xlink" style="isolation:isolate" viewBox="0 0 100 100" width="100pt" height="100pt"><g><rect x="0" y="0" width="100" height="100" transform="matrix(1,0,0,1,0,0)" fill="rgb(0,158,225)"/><path d=" M 86.614 36.431 C 87.665 37.148 87.793 39.554 86.935 40.909 C 86.298 41.831 85.501 42.631 84.582 43.271 C 82.919 44.588 81.082 45.67 79.123 46.486 C 77.402 47.393 75.604 48.146 73.749 48.733 C 70.485 49.866 67.136 50.736 63.734 51.337 C 55.756 52.774 47.603 52.953 39.569 51.869 C 34.719 51.25 29.949 50.114 25.341 48.478 C 25.042 48.373 24.756 48.223 24.461 48.096 C 20.859 46.838 17.468 45.188 14.552 42.681 C 13.215 41.542 12.326 40.183 12.529 38.283 C 12.556 37.635 12.826 37.021 13.285 36.563 C 14.35 35.565 15.682 35.081 17.055 34.685 C 20.89 33.581 24.848 33.225 28.807 32.979 C 40.273 32.266 51.748 32.314 63.224 32.596 C 66.72 32.679 70.221 32.794 73.7 33.181 C 76.674 33.461 79.628 33.924 82.545 34.566 C 84.004 34.935 85.382 35.567 86.614 36.431 Z  M 62.01 45.065 C 66.294 44.229 70.459 43.073 74.303 40.939 C 74.769 40.539 75.262 40.152 75.702 39.743 C 76.08 39.404 76.023 39.097 75.609 38.82 C 74.957 38.406 74.239 38.108 73.485 37.94 C 70.857 37.324 68.173 36.98 65.475 36.915 C 54.466 36.36 43.435 36.413 32.431 37.073 C 30.074 37.249 27.698 37.447 25.429 38.292 C 23.643 38.973 23.617 39.176 24.989 40.442 C 25.029 40.485 25.066 40.531 25.099 40.579 C 27.296 42.061 29.743 43.136 32.321 43.75 C 34.542 44.273 36.706 45.004 38.941 45.355 C 41.391 45.803 43.874 46.054 46.365 46.108 C 49.637 46.099 52.91 46.187 56.182 45.914 C 58.138 45.737 60.084 45.454 62.01 45.065 Z  M 50.086 60.002 C 41.83 60.002 33.812 58.722 26.093 55.696 C 23.274 54.587 20.556 53.268 18.233 51.276 C 17.028 50.242 16.083 49.076 16.258 47.317 C 16.368 46.217 16.562 46.059 17.446 46.648 C 19.913 48.231 22.574 49.489 25.363 50.391 C 29.797 51.902 34.361 52.997 38.998 53.664 C 40.876 53.945 42.758 54.183 44.636 54.403 C 46.079 54.57 47.561 54.403 49.035 54.442 C 52.048 54.565 55.067 54.44 58.06 54.068 C 66.122 53.052 73.991 51.258 81.221 47.33 C 81.714 47.062 82.198 46.767 82.677 46.477 C 83.399 46.037 83.645 46.134 83.759 46.961 C 83.98 48.058 83.679 49.195 82.946 50.04 C 82.092 50.986 81.111 51.807 80.029 52.481 C 73.516 56.615 66.245 58.432 58.72 59.474 C 55.858 59.859 52.973 60.036 50.086 60.002 Z  M 81.908 54.961 C 81.893 55.527 81.844 56.091 81.758 56.65 C 81.041 58.458 79.55 59.584 78.015 60.56 C 76.586 61.5 75.074 62.309 73.498 62.975 C 69.605 64.607 65.547 65.812 61.394 66.568 C 58.544 67.079 55.68 67.303 52.795 67.518 C 50.17 67.652 47.538 67.614 44.918 67.404 C 40.504 67.118 36.14 66.309 31.916 64.994 C 29.53 64.309 27.208 63.417 24.976 62.328 C 22.592 61.137 20.252 59.843 18.634 57.618 C 17.754 56.408 17.987 55.036 18.194 53.717 C 18.277 53.18 18.647 53.409 18.915 53.62 C 20.071 54.498 21.307 55.267 22.605 55.916 C 25.023 57.097 27.522 58.106 30.082 58.933 C 32.541 59.777 35.079 60.156 37.559 60.78 C 39.059 61.159 40.647 61.185 42.191 61.405 C 45.217 61.84 48.265 61.726 51.309 61.779 C 54.731 61.787 58.147 61.479 61.513 60.859 C 65.009 60.293 68.446 59.41 71.783 58.22 C 73.263 57.706 74.712 57.102 76.119 56.413 C 76.432 56.246 79.801 54.592 80.98 53.607 C 81.534 53.145 81.727 53.316 81.82 53.906 C 81.872 54.253 81.881 54.609 81.908 54.961 Z " fill="rgb(255,255,255)"/></g></svg>
